X:1
T:048 - Salvação
T:Letra: Tullius Clinton O'Kane (1830-1912)
T:Trad.: Joseph Jones (1848-1927)
T:Música: Tullius Clinton O'Kane (1830-1912)
M:4/4
L:1/8
K:Ab
V:1
E2 | "Ab"c3c dc BA | "Db"A3A BA GF | "Ab"E2 A2B2c2 | "Eb"B4 z2 AB | "Ab"c3c dc BA | "Db"A3A BA GF | "Ab/Eb"E2 A2 "Eb7"B2 c2 | "Ab"A4 z2 || c>d | "Ab"e3=d e2 c>c | ("Eb7"d3c d2) B>B | "Fm"A2 A>A "Eb"B2 B>B | ("Ab"c4 "Eb"B2) c>d | "Ab"e3=d e2 c>c | ("Db"d4HF2) B>B | "Ab/Eb"A2 AB c2 "Eb7"BB | "Ab"A6 |]
w: 1.~Can-tai a Cris_to,_ Sal-va-dor,_  Que_ tan-to nos a-mou; E,_ pa-ra nos_sa_ sal-va-ção,_ Seu_ san-gue der-ra-mou.     Sal-va-ção!__ Sal-va-ção!__    Que di-ma-na do Fi-lho de Deus!_    Sal-va-ção!__ Sal-va-ção!_                        A-le-lui-aa Je-sus, nos-so Deus!  
w: 2.~Mi-rai oa-mor_ queé_ pe-re-nal,_ Oa_mor do gran-de Deus; Tão_ vas-to, pu_ro,_ tão ve-raz,_ Per_do-aos er-ros meus.  
w: 3.~Lou-vor a Cris_to,_ Re-den-tor,_ De_ve-mos en-to-ar, E_ dar a to_dos_ co-nhe-cer_ Que_ Cris-toos quer sal-var.
W: 
W:
W: 1. Cantai a Cristo, Salvador, 
W: Que tanto nos amou;
W: E, para nossa salvação,
W: Seu sangue derramou.
W: 
W:    (Estribilho)
W:    Salvação! Salvação!
W:    Que dimana do Filho de Deus!
W:    Salvação! Salvação!                    
W:    Aleluia a Jesus, nosso Deus!
W: 
W:
W:
W: 2. Mirai o amor que é perenal,
W: O amor do grande Deus;
W: Tão vasto, puro, tão veraz,
W: Perdoa os erros meus.
W: 
W: 3. Louvor a Cristo, Redentor,
W: Devemos entoar,
W: E dar a todos conhecer
W: Que Cristo os quer salvar.
W: 
W: 





%wordsfont Times-Roman 13.0
%vocalfont Times-Roman 13.0
